static/img/kroki/3bd7aa8ddc475cb9fae7d5c9349d54a8.svg

<?xml version="1.0" encoding="us-ascii" standalone="no"?><svg xmlns="http://www.w3.org/2000/svg" xmlns:xlink="http://www.w3.org/1999/xlink" contentStyleType="text/css" height="374px" preserveAspectRatio="none" style="width:311px;height:374px;" version="1.1" viewBox="0 0 311 374" width="311px" zoomAndPan="magnify"><defs/><g><!--class aws_cloudformation_stack_set--><g id="elem_aws_cloudformation_stack_set"><rect codeLine="23" fill="#3D176E" height="39.7891" id="aws_cloudformation_stack_set" rx="2.5" ry="2.5" style="stroke:#000D19;stroke-width:0.5;" width="297" x="7" y="328.58"/><ellipse cx="22" cy="348.4745" fill="#ADD1B2" rx="11" ry="11" style="stroke:#181818;stroke-width:1.0;"/><path d="M24.9688,354.1152 Q24.3906,354.412 23.75,354.5527 Q23.1094,354.7089 22.4063,354.7089 Q19.9063,354.7089 18.5781,353.0683 Q17.2656,351.412 17.2656,348.287 Q17.2656,345.162 18.5781,343.5058 Q19.9063,341.8495 22.4063,341.8495 Q23.1094,341.8495 23.75,342.0058 Q24.4063,342.162 24.9688,342.4589 L24.9688,345.1777 Q24.3438,344.5995 23.75,344.3339 Q23.1563,344.0527 22.5313,344.0527 Q21.1875,344.0527 20.5,345.1308 Q19.8125,346.1933 19.8125,348.287 Q19.8125,350.3808 20.5,351.4589 Q21.1875,352.5214 22.5313,352.5214 Q23.1563,352.5214 23.75,352.2558 Q24.3438,351.9745 24.9688,351.3964 L24.9688,354.1152 Z " fill="#000000"/><text fill="#D9B8FF" font-family="Helvetica" font-size="17" lengthAdjust="spacing" textLength="255" x="41" y="354.3598">aws_cloudformation_stack_set</text></g><!--class aws_resource--><g id="elem_aws_resource"><rect codeLine="26" fill="#3D176E" height="39.7891" id="aws_resource" rx="2.5" ry="2.5" style="stroke:#000D19;stroke-width:0.5;" width="155" x="78" y="167.79"/><ellipse cx="93" cy="187.6845" fill="#ADD1B2" rx="11" ry="11" style="stroke:#181818;stroke-width:1.0;"/><path d="M95.9688,193.3252 Q95.3906,193.622 94.75,193.7627 Q94.1094,193.9189 93.4063,193.9189 Q90.9063,193.9189 89.5781,192.2783 Q88.2656,190.622 88.2656,187.497 Q88.2656,184.372 89.5781,182.7158 Q90.9063,181.0595 93.4063,181.0595 Q94.1094,181.0595 94.75,181.2158 Q95.4063,181.372 95.9688,181.6689 L95.9688,184.3877 Q95.3438,183.8095 94.75,183.5439 Q94.1563,183.2627 93.5313,183.2627 Q92.1875,183.2627 91.5,184.3408 Q90.8125,185.4033 90.8125,187.497 Q90.8125,189.5908 91.5,190.6689 Q92.1875,191.7314 93.5313,191.7314 Q94.1563,191.7314 94.75,191.4658 Q95.3438,191.1845 95.9688,190.6064 L95.9688,193.3252 Z " fill="#000000"/><text fill="#D9B8FF" font-family="Helvetica" font-size="17" lengthAdjust="spacing" textLength="113" x="112" y="193.5698">aws_resource</text></g><!--class resource--><g id="elem_resource"><rect codeLine="29" fill="#3D176E" height="39.7891" id="resource" rx="2.5" ry="2.5" style="stroke:#000D19;stroke-width:0.5;" width="113" x="99" y="7"/><ellipse cx="114" cy="26.8945" fill="#ADD1B2" rx="11" ry="11" style="stroke:#181818;stroke-width:1.0;"/><path d="M116.9688,32.5352 Q116.3906,32.832 115.75,32.9727 Q115.1094,33.1289 114.4063,33.1289 Q111.9063,33.1289 110.5781,31.4883 Q109.2656,29.832 109.2656,26.707 Q109.2656,23.582 110.5781,21.9258 Q111.9063,20.2695 114.4063,20.2695 Q115.1094,20.2695 115.75,20.4258 Q116.4063,20.582 116.9688,20.8789 L116.9688,23.5977 Q116.3438,23.0195 115.75,22.7539 Q115.1563,22.4727 114.5313,22.4727 Q113.1875,22.4727 112.5,23.5508 Q111.8125,24.6133 111.8125,26.707 Q111.8125,28.8008 112.5,29.8789 Q113.1875,30.9414 114.5313,30.9414 Q115.1563,30.9414 115.75,30.6758 Q116.3438,30.3945 116.9688,29.8164 L116.9688,32.5352 Z " fill="#000000"/><text fill="#D9B8FF" font-family="Helvetica" font-size="17" lengthAdjust="spacing" textLength="71" x="133" y="32.7798">resource</text></g><!--reverse link aws_resource to aws_cloudformation_stack_set--><g id="link_aws_resource_aws_cloudformation_stack_set"><path codeLine="32" d="M155.5,225.84 C155.5,256.36 155.5,297.69 155.5,328.25 " fill="none" id="aws_resource-backto-aws_cloudformation_stack_set" style="stroke:#FFAF37;stroke-width:2.0;"/><polygon fill="none" points="155.5,207.84,149.5,225.84,161.5,225.84,155.5,207.84" style="stroke:#FFAF37;stroke-width:2.0;"/></g><!--reverse link resource to aws_resource--><g id="link_resource_aws_resource"><path codeLine="33" d="M155.5,65.05 C155.5,95.57 155.5,136.9 155.5,167.46 " fill="none" id="resource-backto-aws_resource" style="stroke:#FFAF37;stroke-width:2.0;"/><polygon fill="none" points="155.5,47.05,149.5,65.05,161.5,65.05,155.5,47.05" style="stroke:#FFAF37;stroke-width:2.0;"/></g><!--SRC=[XP1BRy9038Jl-HKhSOu4HIqWzKAHglQ2gj9xPB9UM96i8zifee__NYYbMX8UrvdFdh6NtgB1ijADAR6S8qiYAnygO2ZDc9dM4og8JSSvSFr1qtoae5U1APHedh1uH_KvD8ctfSzN0KNCJMGzGBvQCDN1xjShGv2jXK4ZQbA0o5YL_RnMZChOqNpeN9DiBktqRMzmXosCs2B_8Trkr_P6JUHgrCMx_ucP_q3JYvys9SLMpLR4BtMnvOw8IhOEFVXdExw0jJuip6salUuxSK0-qcTBiBJUqGuAYMD4aP5qK-6aTHMEXjODJiBFv-0atxtEm5golA3QEk8Ir5F8HBSZcQ2QpoJvZZX6ePfpZFLZxOYw_qhJz690Se8zICaF]--></g></svg>

<svg xmlns="http://www.w3.org/2000/svg" width="311" height="374" viewBox="0 0 311 374"><rect width="297" height="39.789" x="7" y="328.58" fill="#3D176E" rx="2.5" ry="2.5" style="stroke:#000d19;stroke-width:.5"/><circle cx="22" cy="348.474" r="11" fill="#ADD1B2" style="stroke:#181818;stroke-width:1"/><path d="M24.969 354.115q-.578.297-1.219.438-.64.156-1.344.156-2.5 0-3.828-1.64-1.312-1.657-1.312-4.782t1.312-4.781q1.328-1.656 3.828-1.656.703 0 1.344.156.656.156 1.219.453v2.719q-.625-.579-1.219-.844-.594-.281-1.219-.281-1.343 0-2.031 1.078-.687 1.062-.687 3.156t.687 3.172q.688 1.062 2.031 1.062.625 0 1.219-.265.594-.281 1.219-.86z"/><text x="41" y="354.36" fill="#D9B8FF" font-family="Helvetica" font-size="17" textLength="255">aws_cloudformation_stack_set</text><rect width="155" height="39.789" x="78" y="167.79" fill="#3D176E" rx="2.5" ry="2.5" style="stroke:#000d19;stroke-width:.5"/><circle cx="93" cy="187.685" r="11" fill="#ADD1B2" style="stroke:#181818;stroke-width:1"/><path d="M95.969 193.325q-.578.297-1.219.438-.64.156-1.344.156-2.5 0-3.828-1.64-1.312-1.657-1.312-4.782t1.312-4.781q1.328-1.656 3.828-1.656.703 0 1.344.156.656.156 1.219.453v2.719q-.625-.578-1.219-.844-.594-.281-1.219-.281-1.344 0-2.031 1.078-.687 1.062-.687 3.156t.687 3.172q.688 1.062 2.031 1.062.625 0 1.219-.265.594-.281 1.219-.86z"/><text x="112" y="193.57" fill="#D9B8FF" font-family="Helvetica" font-size="17" textLength="113">aws_resource</text><rect width="113" height="39.789" x="99" y="7" fill="#3D176E" rx="2.5" ry="2.5" style="stroke:#000d19;stroke-width:.5"/><circle cx="114" cy="26.895" r="11" fill="#ADD1B2" style="stroke:#181818;stroke-width:1"/><path d="M116.969 32.535q-.578.297-1.219.438-.64.156-1.344.156-2.5 0-3.828-1.64-1.312-1.657-1.312-4.782t1.312-4.781q1.328-1.656 3.828-1.656.703 0 1.344.156.656.156 1.219.453v2.719q-.625-.578-1.219-.844-.594-.281-1.219-.281-1.344 0-2.031 1.078-.687 1.062-.687 3.156t.687 3.172q.688 1.062 2.031 1.062.625 0 1.219-.265.594-.281 1.219-.86z"/><text x="133" y="32.78" fill="#D9B8FF" font-family="Helvetica" font-size="17" textLength="71">resource</text><path fill="none" d="M155.5 225.84v102.41m0-120.41-6 18h12zm0-142.79v102.41m0-120.41-6 18h12z" style="stroke:#ffaf37;stroke-width:2"/></svg>
